src/hbcore/resources/themes/icons/hbdefault/scalable/qtg_status_bluetooth.svg

<?xml version="1.0" encoding="UTF-8" standalone="no"?>
<!DOCTYPE svg PUBLIC "-//W3C//DTD SVG 1.1 Tiny//EN" "http://www.w3.org/Graphics/SVG/1.1/DTD/svg11-tiny.dtd">
<svg xmlns="http://www.w3.org/2000/svg" xmlns:xlink="http://www.w3.org/1999/xlink" baseProfile="tiny" height="16px" version="1.1" viewBox="0 0 16 16" width="16px" x="0px" y="0px">
<rect fill="none" height="16" width="16"/>
<path d="M11.88,5.274l-4.774-4.774v5.454l-2.047-2.046-0.936,0.939s2.117,2.118,2.984,2.982v0.342c-0.867,0.862-2.984,2.982-2.984,2.982l0.937,0.936,2.047-2.042v5.45l4.771-4.773s-2.075-2.076-2.727-2.726c0.649-0.66,2.727-2.73,2.727-2.73zm-1.88,5.456c-0.339,0.338-0.955,0.956-1.538,1.538v-3.078c0.587,0.583,1.226,1.218,1.538,1.538zm-1.53-3.923v-3.069c0.579,0.583,1.195,1.199,1.534,1.538-0.312,0.309-0.951,0.951-1.53,1.531z"/>
</svg>

<?xml version="1.0" encoding="UTF-8"?>
<!DOCTYPE svg PUBLIC "-//W3C//DTD SVG 1.1 Tiny//EN" "http://www.w3.org/Graphics/SVG/1.1/DTD/svg11-tiny.dtd">
<svg baseProfile="tiny" height="16px" version="1.1" viewBox="0 0 16 16" width="16px" x="0px" xmlns="http://www.w3.org/2000/svg" xmlns:xlink="http://www.w3.org/1999/xlink" y="0px">
<rect fill="none" height="16" width="16"/>
<path d="M11.877,5.274L7.106,0.5v5.454L5.059,3.908L4.123,4.847c0,0,2.117,2.118,2.984,2.982v0.342  c-0.867,0.862-2.984,2.982-2.984,2.982l0.937,0.936l2.047-2.042V15.5l4.771-4.773c0,0-2.075-2.076-2.727-2.726  C9.802,7.344,11.877,5.274,11.877,5.274z M10.004,10.727c-0.339,0.338-0.955,0.956-1.538,1.538V9.192  C9.049,9.775,9.688,10.411,10.004,10.727z M8.47,6.807V3.738c0.579,0.583,1.195,1.199,1.534,1.538  C9.688,5.585,9.049,6.227,8.47,6.807z"/>
</svg>
